T: President Lincoln's
M: 4/4
L: 1/8
K: Amaj
A2 c>A E>Ac>A | G>AB>G A>Ec>e | d>fe>c d>cB>A | G>B (3edc d>BG>E | A>Ec>A E>Ac>A | G>AB>G A2 (3cde | d2 (3fed c2 (3BAG | A2 A2 A2 :|e>Ac>e a>gf>e | G2 (3ABc d>EF>G | A,>CE>A F>dB>A | G2 F2 E2 (3Bcd |e>Ac>e a2 (3gfe | f>Bd>f b2 (3agf | c>eA>c B>dG>B | A2 c2 A2 :|
